X:1
T:[ID 8-10b]
T:[ID 8-10b]
T:Bezeichnung standardisiert: Schwabisch Schwabisch In dieser Quelle auch als: Schwabisch oder Walzer
T:Urheber unbekannt Erstbeleg: 1792 (Datum in der schriftlichen Quelle) Datum in der hier transkribierten schriftlichen Quelle: 1796
C:Urheber unbekannt
C:Erstbeleg: 1792 (Datum in der schriftlichen Quelle)
C:Datum in der hier transkribierten schriftlichen Quelle: 1796
L:1/8
M:3/4
K:D
V:1 treble 
V:1
 f2 e | dc d | eg f | e/d/e/f/ e | f2 e | dc d | eg f | e2 e :: a2 (b/4c'/4)d'/ | a2 (b/4c'/4)d'/ | %10
 gf e | d/c/d/e/ d | a2 (b/4c'/4)d'/ | a2 (b/4c'/4)d'/ | gf e | d2 d :| %16

